X: 5
T:Constant Billy
% Nottingham Music Database
S:Adderbury
M:6/8
K:A
P:A
E|A2e c/2A3/2c|d2B G2E|!segno!  c3/2B/2A F2E|EFG A2:|
P:B
cde f3|Bcd e3|cde f3|Bcd e2(3e/2f/2g/2|a2e c/2A3/2c|d2B G2\
P:D.S.
E||<end>
<start>
